src/lib/packages/icons/src/assets/filled/money-bill-convert.svg

<svg xmlns="http://www.w3.org/2000/svg" width="24" height="24" fill="none"><path fill="currentColor" d="M22.693 19.713a.749.749 0 0 1-.163.817l-1 1a.748.748 0 0 1-1.237-.78H17.5a2.252 2.252 0 0 1-2.25-2.25V18a.75.75 0 0 1 1.5 0v.5c0 .414.336.75.75.75H22a.75.75 0 0 1 .693.463ZM20.5 14.75h-2.792a.75.75 0 0 0-1.238-.78l-1 1a.75.75 0 0 0 .53 1.28h4.5a.75.75 0 0 1 .75.75v.5a.75.75 0 0 0 1.5 0V17a2.252 2.252 0 0 0-2.25-2.25ZM13 17c0 .19.01.38.03.57.01.04.02.08.02.12 0 .17-.14.31-.31.31H5c-2 0-3-1-3-3V7c0-2 1-3 3-3h12c2 0 3 1 3 3v4.98c0 .21-.2.34-.4.28A5.002 5.002 0 0 0 13 17Zm-7-6.001a1 1 0 1 0-2 0 1 1 0 0 0 2 0ZM14 11a3 3 0 1 0-6 0 3 3 0 0 0 6 0Z"/></svg>

<svg width="24" height="24" viewBox="0 0 24 24" fill="none" xmlns="http://www.w3.org/2000/svg">
<path d="M22.693 19.713C22.809 19.993 22.745 20.316 22.53 20.53L21.53 21.53C21.384 21.676 21.192 21.75 21 21.75C20.808 21.75 20.616 21.677 20.47 21.53C20.259 21.319 20.2 21.014 20.293 20.75H17.5C16.259 20.75 15.25 19.741 15.25 18.5V18C15.25 17.586 15.586 17.25 16 17.25C16.414 17.25 16.75 17.586 16.75 18V18.5C16.75 18.914 17.086 19.25 17.5 19.25H22C22.303 19.25 22.577 19.433 22.693 19.713ZM20.5 14.75H17.708C17.801 14.486 17.742 14.181 17.531 13.97C17.238 13.677 16.763 13.677 16.47 13.97L15.47 14.97C15.256 15.184 15.191 15.507 15.307 15.787C15.423 16.067 15.697 16.25 16 16.25H20.5C20.914 16.25 21.25 16.586 21.25 17V17.5C21.25 17.914 21.586 18.25 22 18.25C22.414 18.25 22.75 17.914 22.75 17.5V17C22.75 15.759 21.741 14.75 20.5 14.75ZM13 17C13 17.19 13.01 17.38 13.03 17.57C13.04 17.61 13.05 17.65 13.05 17.69C13.05 17.86 12.91 18 12.74 18H5C3 18 2 17 2 15V7C2 5 3 4 5 4H17C19 4 20 5 20 7V11.98C20 12.19 19.8 12.32 19.6 12.26C19.1 12.09 18.56 12 18 12C15.24 12 13 14.24 13 17ZM6 10.999C6 10.447 5.552 9.99902 5 9.99902C4.448 9.99902 4 10.447 4 10.999C4 11.551 4.448 11.999 5 11.999C5.552 11.999 6 11.552 6 10.999ZM14 11C14 9.343 12.657 8 11 8C9.343 8 8 9.343 8 11C8 12.657 9.343 14 11 14C12.657 14 14 12.657 14 11Z" fill="currentColor"/>
</svg>
